X:382
T: VATER ICH RUFE DICH
N: F0678
O: Europa, Mitteleuropa, Deutschland
R: Soldaten -, Kriegs - Lied; religioes, Gebet
M: 4/4
L: 1/16
K: F
 | A4A2A2c6c2 | F12z4 |
A4A3AA4A3A | A4=B3^cd4D2z2 |
=c4c3cc4c3c | c4d3ef4F2
F2 | A4A3AB4B2B2 | =B6B2c4z4 |
f4A2_B2c6E2 | F8z8

@@@ Tune index: 5813
